X:361
T: Little House Under the Hill
N: O'Farrell's Pocket Companion v.4 (Sky ed. p.155)
M: 6/8
L: 1/8
Q: 300
R: jig
K: D
z| AGF AGF| AGF A2d| AGF AGF| GEE G2B|
AGF AGF| AGF A2d| BGG AGF| BEE G2 :|
P:2
B| AFd AFd| AFd A2B| AFd AFd| GEE G2B|
AFd AFd| AFd A2B| BGG AGF| EGE G2 :|
P:3
B| AF/G/A/F/ DFF| DFF A2d| AF/G/A/F/ DFF| GEE G2B|
AF/G/A/F/ DFF| DFF A2d| fdB AGF| BEE G2 :|
P:4
B| AGF A/d/AF| A/d/AF A2B| AGF A/d/AF| GEE G2B|
AGF A/d/AF| A/d/AF A2c| BdB/G/ AdA/F/| BEE G2 :|
P:5
z|dfd AGF| DED AGF| dfd AGF| GEE G2B|
dfd AGF| DED AGF| GEE cEE| BEE G2 :|
P:6
B| fab afd| ded fed| fab afd| gec efg|
faf gec| fdB AGF| GEE cBA| BEE G2 :|
P:7
B| dFd FdF| DAF A2B| dFd FdF| cEE G2B|
dFd FdF| DAF A2d| fdB AGF| BEE G2:|
P:8
B| ABA/G/ FDF| ABA/F/ dcd| ABA/G/ FDF| GEE G2B|
ABA/G/ FDF| GFG FAd| GEE cEE| BEE G2 :|
P:9
B| fdd Add| fdf/g/ afd| fdd Add| ece g2e|
fdd fga/f/| gec dAF| GEE cBA |  BEE G2 :|
P:10
B| dFF AFF| dff A2B| dFF AFF| BEE G2B|
dFF AFF| AFF AFF| BGG AFF| BEE G2 :|
P:11
B| AGF DED| FDF A2d| AGF DED| BEE G2B|
AGF DED| ABc dAF| GEE B/c/BA| BEE G2 :|
